X:137
T:Spring Gardens Hornpipe. Le4.137
M:C
L:1/8
Q:1/4=120
B:L.Leadley MS#4 c1850
Z:Village Music Project, 2016 Ruairidh Greig
K:Bb
de|fgfd fecA|BdBF dBFD|EGBe gecA|cBAGF2de|
fgfd fecA|BdBF dBFD|EGBe gecA|B2B2B2z2:|
|:AB|cBcd edef|gfgab2f2|bagf edcB|cBAGF2de|
frgfd fecA|BdBF dBFD|EGBe geAc|B2B2B2z2:|

